files/1/256x256/places/folder-templates.svg

<svg width="256" xmlns="http://www.w3.org/2000/svg" height="256" viewBox="0 0 256 256" xmlns:xlink="http://www.w3.org/1999/xlink">
<g style="stroke:#a57953">
<path style="fill:#a57953" d="M 4.34668 24.5 C 3.887207 24.453125 3.5 23.991699 3.5 23.498047 L 3.5 4.506836 C 3.5 3.97998 3.945801 3.5 4.4375 3.5 L 27.5625 3.5 C 28.054199 3.5 28.5 3.97998 28.5 4.506836 L 28.5 20.741699 C 28.5 21.268555 27.781738 22.025391 27.290527 22.025391 L 18.825195 22.010254 L 18.825195 23.334473 C 18.825195 23.856934 18.414062 24.5 17.925293 24.5 L 4.4375 24.5 C 4.408203 24.5 4.378906 24.5 4.34668 24.5 Z " transform="matrix(8 0 0 8 0 8)"/>
<path style="fill:#e9b080" d="M 1.549805 5.5 C 0.980469 5.546875 0.5 6.008301 0.5 6.501953 L 0.5 25.493164 C 0.5 26.02002 1.053223 26.5 1.662598 26.5 L 30.337402 26.5 C 30.946777 26.5 31.5 26.02002 31.5 25.493164 L 31.5 9.258301 C 31.5 8.731445 30.609375 7.974609 30 7.974609 L 19.503418 7.989746 L 19.503418 6.665527 C 19.503418 6.143066 18.993164 5.5 18.387695 5.5 L 1.662598 5.5 C 1.626465 5.5 1.589844 5.5 1.549805 5.5 Z " transform="matrix(8 0 0 8 0 8)"/>
</g>
<g style="fill:#a57953">
<path d="M 112 112 L 112 120 L 120 120 L 120 112 Z "/>
<path d="M 144 112 L 144 120 L 152 120 L 152 128 L 160 128 L 160 117.34375 C 160 112 154.6875 112 154.6875 112 Z "/>
<path d="M 128 112 L 128 120 L 136 120 L 136 112 Z "/>
<path d="M 88 128 L 96 128 L 96 120 L 104 120 L 104 112 L 93.34375 112 C 88 112 88 117.3125 88 117.3125 Z "/>
<path d="M 104 184 L 104 176 L 96 176 L 96 168 L 88 168 L 88 178.65625 C 88 184 93.3125 184 93.3125 184 Z "/>
<path d="M 136 184 L 136 176 L 128 176 L 128 184 Z "/>
<path d="M 120 184 L 120 176 L 112 176 L 112 184 Z "/>
<path d="M 88 160 L 96 160 L 96 152 L 88 152 Z "/>
<path d="M 88 144 L 96 144 L 96 136 L 88 136 Z "/>
<path d="M 160 168 L 152 168 L 152 176 L 144 176 L 144 184 L 154.65625 184 C 160 184 160 178.6875 160 178.6875 Z "/>
<path d="M 160 136 L 152 136 L 152 144 L 160 144 Z "/>
<path d="M 160 152 L 152 152 L 152 160 L 160 160 Z "/>
</g>
</svg>

<?xml version="1.0" encoding="UTF-8" standalone="no"?>
<svg
   xmlns:dc="http://purl.org/dc/elements/1.1/"
   xmlns:cc="http://creativecommons.org/ns#"
   xmlns:rdf="http://www.w3.org/1999/02/22-rdf-syntax-ns#"
   xmlns:svg="http://www.w3.org/2000/svg"
   xmlns="http://www.w3.org/2000/svg"
   xmlns:sodipodi="http://sodipodi.sourceforge.net/DTD/sodipodi-0.dtd"
   xmlns:inkscape="http://www.inkscape.org/namespaces/inkscape"
   width="256"
   height="256"
   viewBox="0 0 256 256"
   id="svg3071"
   version="1.1"
   inkscape:version="0.48.5 r10040"
   sodipodi:docname="folder-templates.svg">
  <metadata
     id="metadata3109">
    <rdf:RDF>
      <cc:Work
         rdf:about="">
        <dc:format>image/svg+xml</dc:format>
        <dc:type
           rdf:resource="http://purl.org/dc/dcmitype/StillImage" />
      </cc:Work>
    </rdf:RDF>
  </metadata>
  <defs
     id="defs3107" />
  <sodipodi:namedview
     pagecolor="#ffffff"
     bordercolor="#666666"
     borderopacity="1"
     objecttolerance="10"
     gridtolerance="10"
     guidetolerance="10"
     inkscape:pageopacity="0"
     inkscape:pageshadow="2"
     inkscape:window-width="1280"
     inkscape:window-height="969"
     id="namedview3105"
     showgrid="false"
     inkscape:zoom="0.921875"
     inkscape:cx="-50.983051"
     inkscape:cy="125.83051"
     inkscape:window-x="0"
     inkscape:window-y="0"
     inkscape:window-maximized="1"
     inkscape:current-layer="svg3071" />
  <path
     style="fill:#e9b080;fill-opacity:1;stroke:none"
     d="m 36,29.999998 c -5.85566,0 -12,6 -12,12 l 0,4 -12,0 c -5.8804,0 -12,5.98132 -12,12 L 0,214 c 0,8 4,12 12,12 l 232,0 c 6.27046,0 12,-5.43338 12,-12 l 0,-136.000002 c 0,-6.01972 -5.82016,-12 -12,-12 l -12,0 0,-24 c 0,-5.84462 -5.81288,-12 -12,-12 z"
     id="path6-6"
     inkscape:connector-curvature="0"
     sodipodi:nodetypes="ssccssssscccsss" />
  <path
     sodipodi:nodetypes="sscsssssssscsssssscssssssss"
     inkscape:connector-curvature="0"
     style="fill:#000000;fill-opacity:0.32156863;stroke:none"
     d="m 36,29.999998 c -5.85566,0 -12,6 -12,12 l 0,4 -12,0 c -5.8804,0 -12,5.98132 -12,12 L 0,214 c 0,8 4,12 12,12 l 232,0 c 6.27046,0 12,-5.43338 12,-12 l 0,-136.000002 c 0,-6.01972 -5.82016,-12 -12,-12 l -12,0 0,-24 c 0,-5.84462 -5.81288,-12 -12,-12 z m -24,24 136,0 c 2.3607,0 4,2.05908 4,4 l 0,16 92,0 c 2.0222,0 4,2.03496 4,4 L 248,214 c 0,2.08516 -1.91506,4 -4,4 l -232,0 c -1.85718,0 -4,-1.58538 -4,-4 L 8,57.999998 c 0,-1.96962 2.06612,-4 4,-4 z"
     id="path3778" />
  <path
     style="fill:#000000;fill-opacity:0.32156864"
     inkscape:connector-curvature="0"
     id="path3081"
     d="m 112,112 0,8 8,0 0,-8 z" />
  <path
     style="fill:#000000;fill-opacity:0.32156864"
     inkscape:connector-curvature="0"
     id="path3083"
     d="m 144,112 0,8 8,0 0,8 8,0 0,-10.65625 C 160,112 154.6875,112 154.6875,112 z" />
  <path
     style="fill:#000000;fill-opacity:0.32156864"
     inkscape:connector-curvature="0"
     id="path3085"
     d="m 128,112 0,8 8,0 0,-8 z" />
  <path
     style="fill:#000000;fill-opacity:0.32156864"
     inkscape:connector-curvature="0"
     id="path3087"
     d="m 88,128 8,0 0,-8 8,0 0,-8 -10.65625,0 C 88,112 88,117.3125 88,117.3125 z" />
  <path
     style="fill:#000000;fill-opacity:0.32156864"
     inkscape:connector-curvature="0"
     id="path3089"
     d="m 104,184 0,-8 -8,0 0,-8 -8,0 0,10.65625 C 88,184 93.3125,184 93.3125,184 z" />
  <path
     style="fill:#000000;fill-opacity:0.32156864"
     inkscape:connector-curvature="0"
     id="path3091"
     d="m 136,184 0,-8 -8,0 0,8 z" />
  <path
     style="fill:#000000;fill-opacity:0.32156864"
     inkscape:connector-curvature="0"
     id="path3093"
     d="m 120,184 0,-8 -8,0 0,8 z" />
  <path
     style="fill:#000000;fill-opacity:0.32156864"
     inkscape:connector-curvature="0"
     id="path3095"
     d="m 88,160 8,0 0,-8 -8,0 z" />
  <path
     style="fill:#000000;fill-opacity:0.32156864"
     inkscape:connector-curvature="0"
     id="path3097"
     d="m 88,144 8,0 0,-8 -8,0 z" />
  <path
     style="fill:#000000;fill-opacity:0.32156864"
     inkscape:connector-curvature="0"
     id="path3099"
     d="m 160,168 -8,0 0,8 -8,0 0,8 10.65625,0 C 160,184 160,178.6875 160,178.6875 z" />
  <path
     style="fill:#000000;fill-opacity:0.32156864"
     inkscape:connector-curvature="0"
     id="path3101"
     d="m 160,136 -8,0 0,8 8,0 z" />
  <path
     style="fill:#000000;fill-opacity:0.32156864"
     inkscape:connector-curvature="0"
     id="path3103"
     d="m 160,152 -8,0 0,8 8,0 z" />
</svg>
